X:0567
M:C
L:1/8
Q:1/2=76
K:D
a>gf>g  a>ag>f|e>fg>f Tf2e2|D>DD>E F>FF>G|A>A``GF     TF2E2 |
a>gf>g  a>ag>f|e>fg>f Tf2e2|D>DD>E F>FF>G|A>A``G>F    TF2E2 |
f2 f>f Tf2 e2 |d>fA>d TB2A2|B>dA>d G>dF>d|E>D``E>F    TE2D>E|

